themes/asg/static/images/sponsors/redhat.svg

<svg width="161" height="49" viewBox="0 0 161 49" fill="none" xmlns="http://www.w3.org/2000/svg">
<path d="M65.6174 23.6449C65.6174 21.2321 65.6174 19.3677 65.5076 17.7226H69.458L69.6774 21.2321H69.7872C70.6651 18.7096 72.8597 17.3936 74.8348 17.3936C75.2738 17.3936 75.603 17.3935 75.9321 17.5032V21.8901C75.4932 21.7804 75.0543 21.7804 74.5056 21.7804C72.311 21.7804 70.7748 23.2062 70.3359 25.2899C70.2261 25.7286 70.2261 26.1673 70.2261 26.7157V36.1475H65.6174V23.6449Z" fill="white"/>
<path d="M89.43 24.9609C89.43 23.3158 88.6619 20.4644 85.5894 20.4644C82.7364 20.4644 81.5294 23.0965 81.3099 24.9609H89.43ZM81.4196 28.1414C81.5294 31.4316 84.0532 32.8573 87.016 32.8573C89.1009 32.8573 90.6371 32.5283 92.0636 31.9799L92.722 35.1604C91.1857 35.8184 88.9911 36.3668 86.3576 36.3668C80.432 36.3668 76.9207 32.7476 76.9207 27.1544C76.9207 22.1094 79.9931 17.3936 85.8089 17.3936C91.7344 17.3936 93.7096 22.3288 93.7096 26.277C93.7096 27.1544 93.5999 27.8124 93.4901 28.2511L81.4196 28.1414Z" fill="white"/>
<path d="M146.27 26.3856C142.32 26.2759 137.163 26.8243 137.163 31.2111C137.163 33.8433 138.918 34.94 140.784 34.94C143.746 34.94 145.502 33.0756 146.161 31.3208C146.27 30.8821 146.38 30.5531 146.38 30.2241V26.3856H146.27ZM148.026 31.7595C148.026 33.1852 148.136 34.611 148.245 36.0367H146.599L146.38 33.4046H146.27C145.392 34.8303 143.417 36.3657 140.564 36.3657C136.943 36.3657 135.297 33.8433 135.297 31.4305C135.297 27.263 138.918 24.7405 146.27 24.8502V24.4115C146.27 22.6567 145.941 19.0375 141.662 19.1472C140.125 19.1472 138.479 19.5859 137.163 20.4633L136.614 19.1472C138.26 18.0505 140.235 17.6118 141.881 17.6118C147.038 17.6118 148.026 21.56 148.026 24.7405V31.7595Z" fill="white"/>
<path d="M155.16 14.1011V18.0493H160.317V19.475H155.16V31.2099C155.16 33.513 155.818 34.9387 157.793 34.9387C158.671 34.9387 159.33 34.8291 159.878 34.6097L160.098 36.0355C159.549 36.2548 158.671 36.4742 157.574 36.4742C156.257 36.4742 155.16 36.0355 154.501 35.1581C153.733 34.171 153.404 32.7453 153.404 30.8809V19.475H150.331V18.0493H153.404V14.7591L155.16 14.1011Z" fill="white"/>
<path d="M125.749 17.6121C124.432 17.6121 123.116 18.0508 122.128 18.5992C121.031 19.2572 120.153 20.2443 119.714 21.2313H119.604V12.3479L117.848 11.9092V36.1467H119.604V25.1795C119.604 24.4118 119.714 23.9731 119.824 23.4247C120.592 21.2313 122.677 19.3669 125.31 19.3669C129.041 19.3669 130.248 22.328 130.248 25.6182V36.2564H132.004V25.3988C132.004 18.4895 127.505 17.6121 125.749 17.6121Z" fill="white"/>
<path d="M109.071 28.1384C109.071 28.5771 109.071 29.1254 108.961 29.4544C108.522 31.4285 106.876 32.7446 105.011 32.7446C102.048 32.7446 100.402 30.3318 100.402 26.932C100.402 23.5321 102.048 20.9 105.011 20.9C107.096 20.9 108.522 22.3258 108.961 24.1902C109.071 24.5192 109.071 25.0676 109.071 25.3966V28.1384ZM113.68 10.7005L109.071 9.49414V19.8033H108.961C108.193 18.4872 106.328 17.3905 103.804 17.3905C99.4146 17.3905 95.574 21.0097 95.574 27.1513C95.574 32.7446 99.0854 36.4735 103.365 36.4735C105.998 36.4735 108.193 35.2671 109.29 33.1833H109.4L109.62 36.0347H113.789C113.68 34.8284 113.68 32.7446 113.68 30.8802V10.7005Z" fill="white"/>
<path d="M47.7333 36.4756C46.7457 36.2563 45.6485 36.0369 44.5511 36.0369C42.6857 36.0369 40.93 36.3659 39.7229 36.9143C39.6132 37.024 39.5034 37.1336 39.5034 37.2433C39.5034 37.353 39.5034 37.353 39.5034 37.4626C39.6132 37.9013 39.3938 38.34 38.1867 38.669C36.3213 39.1077 35.2239 40.9721 34.5655 41.5205C33.7974 42.2882 31.6028 42.7269 31.932 42.2882C32.1515 41.9592 33.1391 40.8625 33.7974 39.7658C34.3461 38.7787 34.785 38.4497 35.4434 37.4626C35.6629 37.1336 36.431 36.1466 36.5407 35.3789C36.7602 34.6112 36.6504 33.6241 36.7601 33.1854C36.8699 32.6371 37.4186 31.321 37.5283 30.663C37.5283 30.2243 35.8823 31.2113 35.0045 31.2113C34.2363 31.2113 33.3585 30.7726 32.7001 30.663C31.8223 30.663 31.2736 31.321 30.3957 31.2113C29.9568 31.1017 29.5179 30.7726 28.7497 30.663C27.6524 30.663 26.2259 31.321 23.5923 31.2113C20.9588 31.1017 18.5447 27.9212 18.2155 27.3728C17.8863 26.8244 17.3376 26.8245 16.8987 27.2631C16.3501 27.7018 15.8014 27.3728 15.5819 27.0438C15.2527 26.4954 14.3749 24.7407 12.9484 24.302C10.9732 23.7536 9.98561 25.3987 10.0953 26.6051C10.2051 27.9212 11.0829 28.2502 11.4121 28.9082C11.8511 29.5663 11.9608 30.0049 12.7289 30.334C13.2776 30.5533 13.3873 30.8823 13.2776 31.321C13.1679 31.65 12.6192 31.7597 12.29 31.7597C11.5219 31.7597 10.9732 31.5403 10.644 31.321C10.2051 30.992 9.8759 30.663 9.43697 30.0049C8.99805 29.2372 8.33967 28.9082 7.46181 28.9082C7.02289 28.9082 6.69369 29.0179 6.3645 29.1276C5.04772 29.7856 3.51143 30.2243 1.86545 30.2243H0C3.51142 40.7528 13.497 48.3202 25.2383 48.3202C34.6752 48.6492 42.9051 43.8236 47.7333 36.4756Z" fill="white"/>
<path d="M31.1616 33.9526C31.2714 34.0623 31.4908 34.501 31.2713 35.159C31.1616 35.4881 30.9422 35.7074 30.613 35.9268C30.2838 36.2558 29.5156 36.5848 28.528 35.9268C27.9794 35.5977 27.9794 35.488 27.2113 35.5977C26.6627 35.7074 26.4432 35.159 26.6627 34.7204C26.8821 34.2817 27.6502 33.9526 28.6378 34.501C29.0767 34.7203 29.7351 35.2687 30.3935 34.83C30.613 34.6107 30.8324 34.501 31.1616 34.0623C31.0519 33.9526 31.0519 33.9526 31.1616 33.9526Z" fill="white"/>
<path d="M23.2637 7.96101C20.1912 8.18035 19.862 8.50938 19.3133 9.16741C18.5452 10.0448 17.4479 8.07069 17.4479 8.07069C16.7895 7.96102 16.0214 6.8643 16.4603 5.87725C16.8992 4.8902 17.6674 5.21921 17.8868 5.54823C18.216 5.87724 18.7647 6.53527 19.6425 6.53527C20.4107 6.53527 21.3982 6.31593 22.715 6.31593C24.0318 6.31593 24.9097 6.75462 25.0194 7.19331C24.7999 7.52232 24.6902 7.85134 23.2637 7.96101ZM26.4459 2.91611C26.4459 2.91611 26.3362 2.80644 26.4459 2.91611C26.3362 2.80644 26.3362 2.80643 26.4459 2.80643C26.9946 2.47741 27.9821 2.25806 28.9697 2.14839C29.2989 2.14839 29.6281 2.14839 29.8476 2.14839H29.9573C31.7131 2.14839 33.0298 2.9161 33.0298 3.68381C33.0298 4.45151 31.6033 5.10955 29.8476 5.10955C29.2989 5.10955 28.7503 4.99986 28.3114 4.89019L28.2016 4.78053C28.2016 4.78053 28.2016 4.67085 28.3114 4.67085C29.4087 4.45151 30.067 4.01282 30.067 3.68381C29.9573 3.13545 28.6405 2.9161 26.9946 3.02577C26.7751 2.80643 26.6654 2.91611 26.4459 2.91611ZM40.3819 14.8703C40.1624 15.7477 39.7234 16.8444 38.0775 17.7218C37.858 17.8315 37.7482 17.6121 37.858 17.5025C38.5164 16.4057 38.6262 16.1864 38.7359 15.7477C38.9553 15.0897 39.1748 14.2123 38.6261 12.4576C37.6385 8.83839 35.5536 4.01282 34.0174 2.47741C32.5909 0.942002 29.8476 0.503318 27.4335 1.16135C26.5556 1.38069 24.7999 2.25806 21.6177 1.60003C16.0214 0.393639 15.2533 3.13544 14.9241 4.34183C14.5949 5.54822 13.8268 8.94807 13.8268 8.94807C13.6073 10.3738 13.2781 12.7866 21.8372 14.4317C25.8972 15.1994 26.1167 16.1864 26.2264 16.9541C26.5556 18.2702 27.1043 19.0379 27.6529 19.4766C28.2016 19.9153 27.653 20.1346 26.9946 20.2443C25.2389 20.4636 18.9841 18.5992 15.2533 16.5154C12.1808 14.651 12.1808 13.0059 12.8391 11.5802C8.23041 11.0318 4.71899 12.0189 4.0606 14.2123C2.96328 17.9412 12.2905 24.4118 22.9345 27.5923C34.1271 30.9921 45.6489 28.5794 46.856 21.5603C47.6241 18.2702 44.8809 15.8574 40.3819 14.8703Z" fill="white"/>
</svg>

<svg width="161" height="49" fill="none" xmlns="http://www.w3.org/2000/svg"><path d="M65.617 23.645c0-2.413 0-4.277-.11-5.922h3.951l.22 3.51h.11c.877-2.523 3.072-3.84 5.047-3.84.439 0 .768 0 1.097.11v4.387c-.439-.11-.878-.11-1.426-.11-2.195 0-3.731 1.426-4.17 3.51-.11.439-.11.877-.11 1.426v9.431h-4.609V23.645zM89.43 24.96c0-1.644-.768-4.496-3.84-4.496-2.854 0-4.06 2.633-4.28 4.497h8.12zm-8.01 3.181c.11 3.29 2.633 4.716 5.596 4.716 2.085 0 3.621-.329 5.048-.877l.658 3.18c-1.536.658-3.73 1.207-6.364 1.207-5.926 0-9.437-3.62-9.437-9.213 0-5.045 3.072-9.76 8.888-9.76 5.925 0 7.9 4.935 7.9 8.883 0 .877-.11 1.535-.219 1.974l-12.07-.11zm64.85-1.755c-3.95-.11-9.107.438-9.107 4.825 0 2.632 1.755 3.729 3.621 3.729 2.962 0 4.718-1.864 5.377-3.62.109-.438.219-.767.219-1.096v-3.838h-.11zm1.756 5.373c0 1.426.11 2.852.219 4.278h-1.646l-.219-2.632h-.11c-.878 1.425-2.853 2.96-5.706 2.96-3.621 0-5.267-2.522-5.267-4.935 0-4.167 3.621-6.69 10.973-6.58v-.439c0-1.754-.329-5.373-4.608-5.264-1.537 0-3.183.439-4.499 1.316l-.549-1.316c1.646-1.096 3.621-1.535 5.267-1.535 5.157 0 6.145 3.948 6.145 7.129v7.018zm7.134-17.658v3.948h5.157v1.426h-5.157V31.21c0 2.303.658 3.729 2.633 3.729.878 0 1.537-.11 2.085-.33l.22 1.426c-.549.22-1.427.44-2.524.44-1.317 0-2.414-.44-3.073-1.317-.768-.987-1.097-2.413-1.097-4.277V19.475h-3.073v-1.426h3.073v-3.29l1.756-.658zm-29.411 3.511c-1.317 0-2.633.439-3.621.987-1.097.658-1.975 1.645-2.414 2.632h-.11v-8.883l-1.756-.439v24.238h1.756V25.18c0-.768.11-1.207.22-1.755.768-2.194 2.853-4.058 5.486-4.058 3.731 0 4.938 2.961 4.938 6.251v10.638h1.756V25.4c0-6.91-4.499-7.787-6.255-7.787zm-16.678 10.526c0 .44 0 .987-.11 1.316-.439 1.974-2.085 3.29-3.95 3.29-2.963 0-4.609-2.412-4.609-5.812 0-3.4 1.646-6.032 4.609-6.032 2.085 0 3.511 1.426 3.95 3.29.11.33.11.878.11 1.207v2.741zM113.68 10.7l-4.609-1.206v10.31h-.11c-.768-1.317-2.633-2.413-5.157-2.413-4.39 0-8.23 3.619-8.23 9.76 0 5.594 3.511 9.323 7.791 9.323 2.633 0 4.828-1.207 5.925-3.29h.11l.22 2.85h4.169c-.109-1.206-.109-3.29-.109-5.154V10.7zM47.733 36.476c-.987-.22-2.084-.44-3.182-.44-1.865 0-3.621.33-4.828.878-.11.11-.22.22-.22.33v.219c.11.438-.11.877-1.316 1.206-1.866.439-2.963 2.303-3.621 2.852-.769.767-2.963 1.206-2.634.767.22-.329 1.207-1.425 1.865-2.522.55-.987.988-1.316 1.646-2.303.22-.33.988-1.316 1.098-2.084.22-.768.11-1.755.22-2.194.109-.548.658-1.864.767-2.522 0-.439-1.646.548-2.523.548-.769 0-1.647-.438-2.305-.548-.878 0-1.426.658-2.304.548-.44-.11-.878-.438-1.646-.548-1.098 0-2.524.658-5.158.548-2.633-.11-5.047-3.29-5.377-3.838-.329-.549-.877-.549-1.316-.11-.549.439-1.098.11-1.317-.22-.33-.548-1.207-2.302-2.634-2.741-1.975-.548-2.962 1.097-2.853 2.303.11 1.316.988 1.645 1.317 2.303.44.658.549 1.097 1.317 1.426.549.22.658.548.549.987-.11.329-.659.439-.988.439-.768 0-1.317-.22-1.646-.439-.439-.329-.768-.658-1.207-1.316-.439-.768-1.097-1.097-1.975-1.097-.44 0-.768.11-1.098.22-1.316.658-2.853 1.096-4.499 1.096H0C3.511 40.753 13.497 48.32 25.238 48.32c9.437.33 17.667-4.496 22.495-11.844z" fill="#fff"/><path d="M31.162 33.953c.11.11.329.548.11 1.206-.11.33-.33.548-.659.768-.33.329-1.097.658-2.085 0-.549-.33-.549-.439-1.317-.33-.548.11-.768-.438-.548-.877.22-.438.987-.767 1.975-.219.439.22 1.097.768 1.755.329.22-.22.44-.329.769-.768-.11-.11-.11-.11 0-.11zM23.264 7.961c-3.073.22-3.402.548-3.95 1.206-.769.878-1.866-1.096-1.866-1.096-.659-.11-1.427-1.207-.988-2.194.44-.987 1.207-.658 1.427-.329.329.33.878.987 1.755.987.769 0 1.756-.22 3.073-.22s2.195.44 2.304.878c-.22.33-.329.658-1.755.768zm3.182-5.045s-.11-.11 0 0c-.11-.11-.11-.11 0-.11.549-.329 1.536-.548 2.524-.658h.988c1.755 0 3.072.768 3.072 1.536S31.603 5.11 29.848 5.11c-.55 0-1.098-.11-1.537-.22l-.11-.11s0-.11.11-.11c1.098-.218 1.756-.657 1.756-.986-.11-.549-1.427-.768-3.072-.658-.22-.22-.33-.11-.55-.11zM40.382 14.87c-.22.878-.659 1.974-2.304 2.852-.22.11-.33-.11-.22-.22.658-1.096.768-1.316.878-1.754.22-.658.439-1.536-.11-3.29-.987-3.62-3.072-8.445-4.609-9.98C32.591.941 29.847.502 27.433 1.16c-.877.22-2.633 1.097-5.815.439-5.597-1.206-6.365 1.535-6.694 2.742-.33 1.206-1.097 4.606-1.097 4.606-.22 1.426-.549 3.839 8.01 5.484 4.06.767 4.28 1.754 4.39 2.522.329 1.316.877 2.084 1.426 2.523.549.438 0 .658-.658.767-1.756.22-8.01-1.645-11.742-3.729-3.072-1.864-3.072-3.51-2.414-4.935-4.609-.548-8.12.439-8.778 2.632-1.098 3.73 8.23 10.2 18.873 13.38 11.193 3.4 22.715.987 23.922-6.032.768-3.29-1.975-5.703-6.474-6.69z" fill="#fff"/></svg>
